icons/svg/landuse/orchard.svg

<?xml version="1.0" encoding="UTF-8" standalone="no"?>
<!-- Created with Inkscape (http://www.inkscape.org/) -->

<svg
   xmlns:dc="http://purl.org/dc/elements/1.1/"
   xmlns:cc="http://creativecommons.org/ns#"
   xmlns:rdf="http://www.w3.org/1999/02/22-rdf-syntax-ns#"
   xmlns:svg="http://www.w3.org/2000/svg"
   xmlns="http://www.w3.org/2000/svg"
   xmlns:sodipodi="http://sodipodi.sourceforge.net/DTD/sodipodi-0.dtd"
   xmlns:inkscape="http://www.inkscape.org/namespaces/inkscape"
   version="1.0"
   width="580"
   height="580"
   id="svg2"
   sodipodi:version="0.32"
   inkscape:version="0.91 r"
   sodipodi:docname="orchard.svg"
   inkscape:output_extension="org.inkscape.output.svg.inkscape">
  <metadata
     id="metadata10">
    <rdf:RDF>
      <cc:Work
         rdf:about="">
        <dc:format>image/svg+xml</dc:format>
        <dc:type
           rdf:resource="http://purl.org/dc/dcmitype/StillImage" />
        <cc:license
           rdf:resource="http://web.resource.org/cc/PublicDomain" />
        <dc:language>en</dc:language>
        <dc:title />
      </cc:Work>
    </rdf:RDF>
  </metadata>
  <sodipodi:namedview
     inkscape:window-height="1004"
     inkscape:window-width="1920"
     inkscape:pageshadow="2"
     inkscape:pageopacity="0.0"
     guidetolerance="10.0"
     gridtolerance="10.0"
     objecttolerance="10.0"
     borderopacity="1.0"
     bordercolor="#666666"
     pagecolor="#ffffff"
     id="base"
     showgrid="false"
     inkscape:zoom="0.1767767"
     inkscape:cx="1102.0818"
     inkscape:cy="843.50292"
     inkscape:window-x="1680"
     inkscape:window-y="0"
     inkscape:current-layer="svg2"
     showguides="true"
     inkscape:guide-bbox="true"
     inkscape:window-maximized="1" />
  <defs
     id="defs4">
    <inkscape:perspective
       sodipodi:type="inkscape:persp3d"
       inkscape:vp_x="0 : 290 : 1"
       inkscape:vp_y="0 : 1000 : 0"
       inkscape:vp_z="580 : 290 : 1"
       inkscape:persp3d-origin="290 : 193.33333 : 1"
       id="perspective12" />
    <style
       type="text/css"
       id="style6">
   
    .fil0 {fill:#EF7900}
   
  </style>
    <inkscape:perspective
       id="perspective6807"
       inkscape:persp3d-origin="29.116032 : 19.410688 : 1"
       inkscape:vp_z="58.232063 : 29.116032 : 1"
       inkscape:vp_y="0 : 1000 : 0"
       inkscape:vp_x="0 : 29.116032 : 1"
       sodipodi:type="inkscape:persp3d" />
    <inkscape:perspective
       id="perspective6954"
       inkscape:persp3d-origin="290 : 193.33333 : 1"
       inkscape:vp_z="580 : 290 : 1"
       inkscape:vp_y="0 : 1000 : 0"
       inkscape:vp_x="0 : 290 : 1"
       sodipodi:type="inkscape:persp3d" />
    <inkscape:perspective
       id="perspective2541"
       inkscape:persp3d-origin="240 : 160 : 1"
       inkscape:vp_z="480 : 240 : 1"
       inkscape:vp_y="0 : 1000 : 0"
       inkscape:vp_x="0 : 240 : 1"
       sodipodi:type="inkscape:persp3d" />
    <inkscape:perspective
       id="perspective2750"
       inkscape:persp3d-origin="215 : 143.33333 : 1"
       inkscape:vp_z="430 : 215 : 1"
       inkscape:vp_y="0 : 1000 : 0"
       inkscape:vp_x="0 : 215 : 1"
       sodipodi:type="inkscape:persp3d" />
    <inkscape:perspective
       id="perspective2830"
       inkscape:persp3d-origin="0.5 : 0.33333333 : 1"
       inkscape:vp_z="1 : 0.5 : 1"
       inkscape:vp_y="0 : 1000 : 0"
       inkscape:vp_x="0 : 0.5 : 1"
       sodipodi:type="inkscape:persp3d" />
    <inkscape:perspective
       id="perspective3648"
       inkscape:persp3d-origin="0.5 : 0.33333333 : 1"
       inkscape:vp_z="1 : 0.5 : 1"
       inkscape:vp_y="0 : 1000 : 0"
       inkscape:vp_x="0 : 0.5 : 1"
       sodipodi:type="inkscape:persp3d" />
    <inkscape:perspective
       id="perspective3675"
       inkscape:persp3d-origin="0.5 : 0.33333333 : 1"
       inkscape:vp_z="1 : 0.5 : 1"
       inkscape:vp_y="0 : 1000 : 0"
       inkscape:vp_x="0 : 0.5 : 1"
       sodipodi:type="inkscape:persp3d" />
    <inkscape:perspective
       id="perspective3736"
       inkscape:persp3d-origin="0.5 : 0.33333333 : 1"
       inkscape:vp_z="1 : 0.5 : 1"
       inkscape:vp_y="0 : 1000 : 0"
       inkscape:vp_x="0 : 0.5 : 1"
       sodipodi:type="inkscape:persp3d" />
  </defs>
  <g
     id="g1327">
    <path
       d="M 66.275,1.768 C 24.94,1.768 1.704,23.139 1.704,66.804 L 1.704,516.927 C 1.704,557.771 22.598,579.156 63.896,579.156 L 515.92,579.156 C 557.227,579.156 578.149,558.84 578.149,516.927 L 578.149,66.804 C 578.149,24.203 557.227,1.768 514.627,1.768 C 514.624,1.768 66.133,1.625 66.275,1.768 z"
       style="fill:#111111;stroke:#eeeeee;stroke-width:3.40799999"
       id="path1329" />
  </g>
  <path
     style="opacity:1;fill:#ffffff;fill-opacity:1;stroke:none;stroke-width:65.80000305;stroke-linecap:butt;stroke-linejoin:round;stroke-miterlimit:4;stroke-dasharray:none;stroke-opacity:0.68181817"
     d="m 393.94141,33.101562 c -28.25968,0.498526 -104.9334,20.037007 -107.96485,18.882813 -58.93232,-22.437443 -67.61067,-10.253182 -72.96094,-9.150391 -49.05033,10.110195 -71.71512,9.813249 -82.2246,13.316407 -10.50952,3.503157 -13.40249,43.873499 -14.11914,49.667969 -0.59876,4.84073 -67.305015,0.67537 -53.281255,70.98242 -1.45118,41.26229 29.512421,72.24267 23.673828,74.57813 -5.838619,2.33541 -18.930077,35.25186 13.664067,86.40039 24.84288,38.98481 42.18847,78.40682 73.18359,75.125 l 61.10351,-12.85157 c 2.35322,-3.85389 4.62444,-7.08756 6.8379,-9.85156 20.78405,-1.93846 22.07917,101.20388 4.98828,128.11133 -27.60346,43.45817 90.42322,30.98673 69.9082,4.81055 -13.5482,-43.73993 -15.77552,-35.74659 -10.86719,-74.22657 2.48957,-19.51728 18.61704,-40.03767 33.99805,-56.20117 29.73693,7.02879 136.37297,6.39338 149.62305,-27.77343 9.51197,-24.52765 21.54882,-28.21876 21.54882,-37.56055 0,-9.34174 11.1068,-21.57938 -2.34765,-62.0586 -6.49668,-19.54593 25.33119,-104.01235 -0.30078,-119.18359 -28.05524,-18.31103 -26.34375,-34.18359 -26.34375,-34.18359 0,0 14.61446,-16.797915 2.17187,-41.505862 -5.10559,-10.13847 -61.76033,-34.708003 -85.31836,-37.164063 -1.41743,-0.147611 -3.08868,-0.196956 -4.97265,-0.164063 z m -45.24414,30.550782 c 6.14457,0.09926 13.18221,1.35131 21.99023,4.066406 16.88213,5.98383 22.03712,24.726993 17.99414,43.90625 -5.39595,25.59837 -21.49376,33.97785 -24.875,35.33789 -8.28637,3.33344 -16.29687,-2.74414 -16.29687,-2.74414 0,0 -7.65084,5.09442 -15.78125,2.91602 -2.41939,-0.64737 -16.07107,-8.42359 -21.95899,-31.90821 -5.31063,-21.18272 -2.4109,-34.784314 7.37695,-41.685544 11.34199,-6.063608 19.82024,-10.078161 31.55079,-9.888672 z m 21.14843,18.599609 c -2.32984,-0.0129 -3.52924,2.653622 -1.23437,12.732422 2.44786,10.750935 9.7499,6.093255 9.77734,-3.603516 0.007,-6.09293 -5.42773,-8.720165 -8.0625,-9.091797 -0.16466,-0.0233 -0.32515,-0.03621 -0.48047,-0.03711 z m -174.01575,8.62709 c 6.53411,-0.11767 14.03579,1.10448 23.64453,4.06641 16.88213,5.983827 22.03712,24.725027 17.99414,43.904287 -5.39595,25.59837 -21.49181,33.97785 -24.87305,35.33789 -8.28637,3.33344 -16.29687,-2.74414 -16.29687,-2.74414 0,0 -7.65279,5.09442 -15.7832,2.91602 -2.41939,-0.64737 -16.07107,-8.42358 -21.95899,-31.9082 -5.31063,-21.18273 -2.4109,-34.78432 7.37695,-41.68555 10.80189,-5.774857 19.0063,-9.690607 29.89649,-9.886717 z m 22.80469,18.599607 c 0,2.32988 -3.5312,2.65167 -1.23633,12.73047 2.44786,10.75094 9.75186,6.09325 9.7793,-3.60352 0.007,-6.09293 -5.42773,-8.72017 -8.0625,-9.09179 -0.16466,-0.0233 -0.32515,-0.0343 -0.48047,-0.0352 z m 233.68921,67.5131 c 6.53411,-0.11767 14.03579,1.10448 23.64453,4.06641 16.88213,5.98383 22.03712,24.72503 17.99414,43.90429 -5.39595,25.59837 -21.49181,33.97785 -24.87305,35.33789 -8.28637,3.33344 -16.29687,-2.74414 -16.29687,-2.74414 0,0 -7.65279,5.09442 -15.7832,2.91602 -2.41939,-0.64737 -16.07107,-8.42358 -21.95899,-31.9082 -5.31063,-21.18273 -2.41088,-34.78432 7.37695,-41.68555 10.8019,-5.77486 19.0063,-9.69061 29.89649,-9.88672 z m 22.80469,18.59961 c -2.32984,-0.0129 -3.5312,2.65167 -1.23633,12.73047 2.44786,10.75094 9.75186,6.09325 9.7793,-3.60352 0.007,-6.09293 -5.42773,-8.72017 -8.0625,-9.09179 -0.16466,-0.0233 -0.48047,-0.19053 -0.48047,-0.0352 z m -294.65393,66.25825 c 6.53411,-0.11767 14.03579,1.10448 23.64453,4.06641 16.88213,5.98383 22.03712,24.72504 17.99414,43.90429 -5.39595,25.59837 -21.49181,33.97785 -24.87305,35.33789 -8.28637,3.33344 -16.29687,-2.74414 -16.29687,-2.74414 0,0 -7.65279,5.09442 -15.7832,2.91602 -2.41939,-0.64737 -16.07107,-8.42359 -21.95899,-31.9082 -5.31063,-21.18273 -2.4109,-34.78432 7.37695,-41.68555 10.80189,-5.77487 19.0063,-9.69061 29.89649,-9.88672 z m 136.52334,-32.47666 c 6.53411,-0.11767 14.03579,1.10448 23.64453,4.06641 16.88213,5.98383 22.03712,24.72504 17.99414,43.90429 -5.39595,25.59837 -21.49181,33.97785 -24.87305,35.33789 -8.28637,3.33344 -16.29687,-2.74414 -16.29687,-2.74414 0,0 -7.65279,5.09442 -15.7832,2.91602 -2.41939,-0.64737 -16.07107,-8.42359 -21.95899,-31.9082 -5.31063,-21.18273 -2.41089,-34.78432 7.37695,-41.68555 10.80189,-5.77487 19.0063,-9.69061 29.89649,-9.88672 z M 203.2793,280.44922 c -2.32984,-0.0129 -3.5312,2.65167 -1.23633,12.73047 2.44786,10.75093 9.75186,6.09324 9.7793,-3.60352 0.007,-6.09293 -5.42773,-8.72019 -8.0625,-9.09179 -0.16466,-0.0233 -0.32515,-0.0343 -0.48047,-0.0352 z m 136.52334,-32.47666 c -2.32984,-0.0129 -3.5312,2.65167 -1.23633,12.73047 2.44786,10.75093 9.75186,6.09324 9.7793,-3.60352 0.007,-6.09293 -5.42773,-8.72016 -8.0625,-9.09179 -0.16466,-0.0233 -0.48047,-0.19052 -0.48047,-0.0352 z m -49.35928,116.5333 c 2.17066,0.0247 4.68598,0.63847 7.95898,2.10352 -10.21791,38.66151 -19.74668,71.79063 -27.04882,28.47851 -1.59811,-9.47916 -3.34138,-16.56044 -5.16602,-21.72851 4.76647,-1.60159 9.56919,-2.96057 14.64453,-5.60157 3.51177,-1.82734 6.1267,-3.29147 9.61133,-3.25195 z m 25.03906,12.4375 c 3.85078,2.66481 8.29255,5.87 13.375,9.63867 -9.07434,5.66148 -16.05994,9.71509 -15.85351,8.20508 0.8794,-6.43293 1.63934,-11.82977 2.47851,-17.84375 z"
     id="path3756-4"
     inkscape:connector-curvature="0"
     sodipodi:nodetypes="csssccsscccscscsssccsccscscccscscscccscscccscssscccscscccscscccccscccccscsscscccscscsccccscccccscccccscccsc" />
</svg>

<svg width="580" height="580" viewBox="0 0 580 580" fill="none" xmlns="http://www.w3.org/2000/svg">
<g clip-path="url(#clip0)">
<path d="M66.2751 1.7679C24.9401 1.7679 1.7041 23.1389 1.7041 66.8039V516.927C1.7041 557.771 22.5981 579.156 63.8961 579.156H515.92C557.227 579.156 578.149 558.84 578.149 516.927V66.8039C578.149 24.2029 557.227 1.7679 514.627 1.7679C514.624 1.7679 66.1331 1.6249 66.2751 1.7679Z" fill="#111111" stroke="#EEEEEE" stroke-width="3.408"/>
<path d="M393.941 33.1015C365.682 33.6001 289.008 53.1385 285.976 51.9844C227.044 29.5469 218.366 41.7312 213.016 42.834C163.965 52.9442 141.3 52.6472 130.791 56.1504C120.281 59.6535 117.388 100.024 116.672 105.818C116.073 110.659 49.3668 106.494 63.3905 176.801C61.9393 218.063 92.9029 249.043 87.0643 251.379C81.2257 253.714 68.1343 286.631 100.728 337.779C125.571 376.764 142.917 416.186 173.912 412.904L235.016 400.053C237.369 396.199 239.64 392.965 241.853 390.201C262.637 388.263 263.933 491.405 246.842 518.312C219.238 561.771 337.265 549.299 316.75 523.123C303.202 479.383 300.974 487.376 305.883 448.896C308.372 429.379 324.5 408.859 339.881 392.695C369.618 399.724 476.254 399.089 489.504 364.922C499.016 340.394 511.053 336.703 511.053 327.361C511.053 318.02 522.159 305.782 508.705 265.303C502.208 245.757 534.036 161.29 508.404 146.119C480.349 127.808 482.06 111.936 482.06 111.936C482.06 111.936 496.675 95.1376 484.232 70.4297C479.127 60.2912 422.472 35.7217 398.914 33.2656C397.497 33.118 395.825 33.0686 393.941 33.1015V33.1015ZM348.697 63.6523C354.842 63.7516 361.879 65.0036 370.687 67.7187C387.57 73.7026 392.724 92.4457 388.682 111.625C383.286 137.223 367.188 145.603 363.807 146.963C355.52 150.296 347.51 144.219 347.51 144.219C347.51 144.219 339.859 149.313 331.728 147.135C329.309 146.487 315.657 138.711 309.769 115.227C304.459 94.0438 307.359 80.4422 317.146 73.541C328.488 67.4774 336.967 63.4628 348.697 63.6523V63.6523ZM369.846 82.2519C367.516 82.239 366.316 84.9056 368.611 94.9844C371.059 105.735 378.361 101.078 378.389 91.3808C378.396 85.2879 372.961 82.6607 370.326 82.289C370.161 82.2657 370.001 82.2528 369.846 82.2519V82.2519ZM195.83 90.879C202.364 90.7614 209.866 91.9835 219.474 94.9454C236.357 100.929 241.511 119.67 237.469 138.85C232.073 164.448 215.977 172.828 212.595 174.188C204.309 177.521 196.299 171.443 196.299 171.443C196.299 171.443 188.646 176.538 180.515 174.359C178.096 173.712 164.444 165.936 158.556 142.451C153.246 121.269 156.145 107.667 165.933 100.766C176.735 94.9909 184.94 91.0751 195.83 90.879V90.879ZM218.635 109.479C218.635 111.809 215.103 112.13 217.398 122.209C219.846 132.96 227.15 128.302 227.178 118.606C227.185 112.513 221.75 109.885 219.115 109.514C218.95 109.49 218.79 109.479 218.635 109.479V109.479ZM452.324 176.992C458.858 176.874 466.36 178.096 475.968 181.058C492.85 187.042 498.005 205.783 493.962 224.962C488.566 250.561 472.471 258.94 469.089 260.3C460.803 263.634 452.792 257.556 452.792 257.556C452.792 257.556 445.14 262.651 437.009 260.472C434.59 259.825 420.938 252.049 415.05 228.564C409.74 207.381 412.639 193.78 422.427 186.878C433.229 181.104 441.434 177.188 452.324 176.992V176.992ZM475.128 195.591C472.799 195.578 471.597 198.243 473.892 208.322C476.34 219.073 483.644 214.415 483.671 204.718C483.678 198.625 478.244 195.998 475.609 195.626C475.444 195.603 475.128 195.436 475.128 195.591V195.591ZM180.475 261.85C187.009 261.732 194.51 262.954 204.119 265.916C221.001 271.9 226.156 290.641 222.113 309.82C216.717 335.419 200.621 343.798 197.24 345.158C188.954 348.492 180.943 342.414 180.943 342.414C180.943 342.414 173.29 347.508 165.16 345.33C162.741 344.683 149.089 336.906 143.201 313.422C137.89 292.239 140.79 278.638 150.578 271.736C161.38 265.961 169.584 262.046 180.475 261.85ZM316.998 229.373C323.532 229.255 331.034 230.477 340.642 233.439C357.524 239.423 362.679 258.164 358.637 277.344C353.241 302.942 337.145 311.321 333.763 312.682C325.477 316.015 317.467 309.937 317.467 309.937C317.467 309.937 309.814 315.032 301.683 312.853C299.264 312.206 285.612 304.43 279.724 280.945C274.414 259.762 277.314 246.161 287.101 239.26C297.903 233.485 306.108 229.569 316.998 229.373V229.373ZM203.279 280.449C200.949 280.436 199.748 283.101 202.043 293.18C204.491 303.931 211.795 299.273 211.822 289.576C211.829 283.483 206.394 280.856 203.76 280.484C203.595 280.461 203.435 280.45 203.279 280.449V280.449ZM339.803 247.973C337.473 247.96 336.271 250.624 338.566 260.703C341.014 271.454 348.318 266.796 348.345 257.099C348.352 251.007 342.918 248.379 340.283 248.008C340.118 247.984 339.803 247.817 339.803 247.972V247.973ZM290.443 364.506C292.614 364.531 295.129 365.144 298.402 366.609C288.184 405.271 278.656 438.4 271.353 395.088C269.755 385.609 268.012 378.527 266.187 373.359C270.954 371.758 275.757 370.399 280.832 367.758C284.344 365.93 286.959 364.466 290.443 364.506ZM315.482 376.943C319.333 379.608 323.775 382.813 328.857 386.582C319.783 392.243 312.797 396.297 313.004 394.787C313.883 388.354 314.643 382.957 315.482 376.943V376.943Z" fill="white"/>
</g>
<defs>
<clipPath id="clip0">
<path d="M0 0H580V580H0V0Z" fill="white"/>
</clipPath>
</defs>
</svg>
